packages/core/src/svgs/tokens/branded/CUSDC.svg

<svg width="24" height="24" viewBox="0 0 24 24" fill="none" xmlns="http://www.w3.org/2000/svg">
<path d="M12.059 6.70593C10.9257 7.04869 9.93438 7.75024 9.2342 8.70501C8.53404 9.65982 8.1629 10.8162 8.17664 12C8.17664 14.5295 9.82369 16.653 12.059 17.2942V16.2765C11.1881 15.9532 10.4383 15.3689 9.9119 14.6036C9.3855 13.8381 9.10817 12.929 9.11781 12C9.11781 10.0176 10.3531 8.32945 12.059 7.72358V6.70593ZM14.8826 16.2765C15.7533 15.9532 16.5031 15.3689 17.0297 14.6036C17.556 13.8381 17.8333 12.929 17.8237 12C17.8237 10.0176 16.5884 8.32945 14.8826 7.72358V6.70593C16.0158 7.04869 17.0071 7.75024 17.7073 8.70501C18.4074 9.65982 18.7786 10.8162 18.7648 12C18.7648 14.5295 17.1178 16.653 14.8826 17.2942V16.2765Z" fill="#657786"/>
<path d="M12.8826 8.47064H14.0592V9.1177C14.4518 9.20281 14.8119 9.39877 15.0965 9.68234C15.3811 9.96605 15.5784 10.3254 15.665 10.7177H14.6473C14.6473 10.1883 14.018 9.81177 13.4709 9.81177C12.9238 9.81177 12.2943 10.1883 12.2943 10.6412C12.2943 11.0941 13.0473 11.3 13.9414 11.4706C15.8355 11.8353 15.8238 12.7648 15.8238 13.1648V13.2059C15.8238 13.5413 15.512 14.6589 14.0592 14.8942V15.5294H12.8826V14.8824C12.4594 14.7892 12.0703 14.5804 11.7588 14.2793C11.4472 13.9781 11.2254 13.5963 11.1179 13.1766H12.1355C12.1355 13.5529 12.5297 14.1883 13.4709 14.1883C14.412 14.1883 14.6473 13.6589 14.6473 13.2824C14.6473 12.9059 14.6473 12.5294 13.159 12.3001C11.665 12.0765 11.2767 11.1706 11.2767 10.7177C11.2767 10.3177 11.5179 9.32356 12.8826 9.10594V8.47064Z" fill="#283947"/>
<path d="M20.5295 4.29417C18.5924 2.79864 16.2121 1.99141 13.7649 2.00007C8.08246 2.00007 3.4707 6.47652 3.4707 12C3.4707 17.5236 8.08246 22 13.7649 22C16.3472 22 18.7236 21.0765 20.5295 19.553L19.4119 18.2001C17.8292 19.5247 15.8286 20.2457 13.7649 20.2353C9.05893 20.2353 5.2354 16.5471 5.2354 12C5.2354 7.453 9.05893 3.76477 13.7649 3.76477C15.8353 3.76477 17.9296 4.47065 19.4119 5.65888L20.5295 4.29417Z" fill="url(#paint0_linear_364_8552)"/>
<defs>
<linearGradient id="paint0_linear_364_8552" x1="12.0002" y1="2.00007" x2="12.0002" y2="22" gradientUnits="userSpaceOnUse">
<stop stop-color="#27D3A2"/>
<stop offset="1" stop-color="#9388FD"/>
</linearGradient>
</defs>
</svg>

<svg xmlns="http://www.w3.org/2000/svg" width="24" height="24" fill="none" viewBox="0 0 24 24">
    <path fill="#657786" d="M12.059 6.706A5.465 5.465 0 0 0 8.177 12c0 2.53 1.647 4.653 3.882 5.294v-1.018A4.51 4.51 0 0 1 9.118 12c0-1.982 1.235-3.67 2.941-4.276zm2.824 9.57A4.51 4.51 0 0 0 17.823 12c0-1.982-1.235-3.67-2.94-4.276V6.706A5.465 5.465 0 0 1 18.765 12c0 2.53-1.647 4.653-3.882 5.294z"/>
    <path fill="#283947" d="M12.883 8.47h1.176v.648a2.1 2.1 0 0 1 1.606 1.6h-1.018c0-.53-.629-.906-1.176-.906s-1.177.376-1.177.83c0 .452.753.658 1.647.829 1.894.364 1.883 1.294 1.883 1.694v.04c0 .336-.312 1.454-1.765 1.69v.634h-1.176v-.647a2.34 2.34 0 0 1-1.765-1.705h1.018c0 .376.394 1.011 1.335 1.011s1.176-.53 1.176-.906 0-.753-1.488-.982c-1.494-.224-1.882-1.13-1.882-1.582 0-.4.24-1.394 1.606-1.612z"/>
    <path fill="url(#CUSDC__a)" d="M20.53 4.294A11 11 0 0 0 13.764 2C8.082 2 3.47 6.477 3.47 12c0 5.524 4.611 10 10.294 10a10.48 10.48 0 0 0 6.764-2.447L19.412 18.2a8.73 8.73 0 0 1-5.647 2.035c-4.706 0-8.53-3.688-8.53-8.235s3.824-8.235 8.53-8.235c2.07 0 4.165.706 5.647 1.894z"/>
    <defs>
        <linearGradient id="CUSDC__a" x1="12" x2="12" y1="2" y2="22" gradientUnits="userSpaceOnUse">
            <stop stop-color="#27D3A2"/>
            <stop offset="1" stop-color="#9388FD"/>
        </linearGradient>
    </defs>
</svg>
